Vector/symbolic/devices/input-touchpad-symbolic.svg

<svg xmlns="http://www.w3.org/2000/svg" width="16" height="16"><path d="M1 2C0 2 0 3 0 3v11s0 1 1 1h13s1 0 1-1V3c0-1-1-1-1-1zm1 2h11v6H2zm0 7h5v2H2zm6 0h5v2H8z" fill="#555555"/></svg>

<svg xmlns="http://www.w3.org/2000/svg" width="16" height="16" version="1.1">
 <path style="fill:#444444" d="M 1,2 C 0,2 0,3 0,3 V 14 C 0,14 0,15 1,15 H 14 C 14,15 15,15 15,14 V 3 C 15,2 14,2 14,2 Z M 2,4 H 13 V 10 H 2 Z M 2,11 H 7 V 13 H 2 Z M 8,11 H 13 V 13 H 8 Z"/>
</svg>
